applications/plugins/org.csstudio.opibuilder.imagelib/SymbolLibrary/SVG/Fluid/Valves/VG 3 way-Valves On-Off Ball Construction On.svg

<?xml version='1.0' encoding='UTF-8'?>
<!DOCTYPE svg PUBLIC "-//W3C//DTD SVG 1.0//EN" "C:\SeeVisioDTD\svg10.dtd">
<!--
/*******************************************************************************
* Copyright (c) 2010-2014 ITER Organization.
* All rights reserved. This program and the accompanying materials
* are made available under the terms of the Eclipse Public License v1.0
* which accompanies this distribution, and is available at
* http://www.eclipse.org/legal/epl-v10.html
******************************************************************************/
-->
<svg xmlns="http://www.w3.org/2000/svg" xmlns:xlink="http://www.w3.org/1999/xlink" width="51pt" height="51pt" viewBox="0 0 51 51" version="1.1">
<g id="surface1">
<path style=" stroke:none;fill-rule:evenodd;fill:rgb(100%,100%,100%);fill-opacity:1;" d="M 1.351562 1.351562 L 1.378906 1.351562 L 1.378906 1.378906 L 1.351562 1.378906 Z M 1.351562 1.351562 "/>
<path style=" stroke:none;fill-rule:evenodd;fill:rgb(100%,100%,100%);fill-opacity:1;" d="M 49.15625 49.15625 L 49.183594 49.15625 L 49.183594 49.183594 L 49.15625 49.183594 Z M 49.15625 49.15625 "/>
<path style="fill-rule:evenodd;fill:rgb(65.098039%,65.098039%,65.098039%);fill-opacity:1;stroke-width:0.72;stroke-linecap:round;stroke-linejoin:round;stroke:rgb(0%,0%,0%);stroke-opacity:1;stroke-miterlimit:3;" d="M 9.672905 11.57707 L 4.972911 9.227072 L 4.972911 17.727062 L 9.672905 15.377065 C 9.074989 14.181233 9.074989 12.774985 9.672905 11.57707 Z M 11.572903 17.277063 L 9.222906 21.977057 L 17.731229 21.977057 L 15.381232 17.277063 C 14.183316 17.879145 12.770818 17.879145 11.572903 17.277063 Z M 17.731229 13.477067 C 17.731229 11.12707 15.827065 9.222906 13.477067 9.222906 C 11.12707 9.222906 9.222906 11.12707 9.222906 13.477067 C 9.222906 15.827065 11.12707 17.733312 13.477067 17.733312 C 15.827065 17.733312 17.731229 15.827065 17.731229 13.477067 Z M 17.281229 11.57707 C 17.879145 12.774985 17.879145 14.181233 17.281229 15.377065 L 21.981224 17.727062 L 21.981224 9.227072 Z M 17.281229 11.57707 " transform="matrix(1.875002,0,0,1.875002,0,0)"/>
</g>
</svg>

<?xml version="1.0" encoding="UTF-8" standalone="no"?>
<!-- Généré par Microsoft Visio 11.0, SVG Export, v1.0 FL_EF010403.svg Page 1 -->

<!--
/*******************************************************************************
* Copyright (c) 2010-2014 ITER Organization.
* All rights reserved. This program and the accompanying materials
* are made available under the terms of the Eclipse Public License v1.0
* which accompanies this distribution, and is available at
* http://www.eclipse.org/legal/epl-v10.html
******************************************************************************/
-->
<svg
   xmlns:v="http://schemas.microsoft.com/visio/2003/SVGExtensions/"
   xmlns:dc="http://purl.org/dc/elements/1.1/"
   xmlns:cc="http://creativecommons.org/ns#"
   xmlns:rdf="http://www.w3.org/1999/02/22-rdf-syntax-ns#"
   xmlns:svg="http://www.w3.org/2000/svg"
   xmlns="http://www.w3.org/2000/svg"
   xmlns:sodipodi="http://sodipodi.sourceforge.net/DTD/sodipodi-0.dtd"
   xmlns:inkscape="http://www.inkscape.org/namespaces/inkscape"
   width="0.374331in"
   height="0.374331in"
   viewBox="0 0 26.9518 26.9518"
   xml:space="preserve"
   color-interpolation-filters="sRGB"
   class="st2"
   id="svg2"
   version="1.1"
   inkscape:version="0.48.2 r9819"
   sodipodi:docname="FL_EF010403.svg"><metadata
   id="metadata35"><rdf:RDF><cc:Work
       rdf:about=""><dc:format>image/svg+xml</dc:format><dc:type
         rdf:resource="http://purl.org/dc/dcmitype/StillImage" /></cc:Work></rdf:RDF></metadata><defs
   id="defs33">
		
		<v:pageProperties
   v:shadowOffsetY="-8.50394"
   v:shadowOffsetX="8.50394"
   v:drawingUnits="24"
   v:pageScale="0.0393701"
   v:drawingScale="0.0393701" />
		
		
	
			
			
		
			
			
			
		
				
				
			
				
				
			
				
				
			</defs><sodipodi:namedview
   pagecolor="#ffffff"
   bordercolor="#666666"
   borderopacity="1"
   objecttolerance="10"
   gridtolerance="10"
   guidetolerance="10"
   inkscape:pageopacity="0"
   inkscape:pageshadow="2"
   inkscape:window-width="708"
   inkscape:window-height="480"
   id="namedview31"
   showgrid="false"
   inkscape:zoom="7.0050899"
   inkscape:cx="16.844894"
   inkscape:cy="16.844894"
   inkscape:window-x="0"
   inkscape:window-y="0"
   inkscape:window-maximized="0"
   inkscape:current-layer="svg2" />
	<v:documentProperties
   v:langID="1036"
   v:metric="true"
   v:viewMarkup="false" />
	<style
   type="text/css"
   id="style4">
	
		.st1 {fill:#ffffff;stroke:none;stroke-linecap:round;stroke-linejoin:round;stroke-width:0.72}
		.st2 {fill:none;fill-rule:evenodd;font-size:12;overflow:visible;stroke-linecap:square;stroke-miterlimit:3}
		.st3 {fill:#ffffff;stroke:#000000;stroke-linecap:round;stroke-linejoin:round;stroke-width:0.72}
	
	</style>
	<g
   id="g3805"><rect
     x="0.72000003"
     y="0.71999973"
     width="0.0159449"
     height="0.0159449"
     class="st1"
     id="rect16"
     style="fill:#ffffff;stroke:none" /><rect
     x="26.2159"
     y="26.2159"
     width="0.0159449"
     height="0.0159449"
     class="st1"
     id="rect21"
     style="fill:#ffffff;stroke:none" /><path
     d="m 9.67197,11.57803 -4.7,-2.35 0,8.5 4.7,-2.35 a 4.25197,4.25197 0 0 1 0,-3.8 z m 1.9,5.7 -2.35,4.7 8.51,0 -2.35,-4.7 a 4.25197,4.25197 0 0 1 -3.81,0 z m 6.16,-3.8 a 4.255,4.255 0 1 0 -8.51,0 4.255,4.255 0 0 0 8.51,0 z m -0.45,-1.9 a 4.25197,4.25197 0 0 1 0,3.8 l 4.7,2.35 0,-8.5 -4.7,2.35 z"
     class="st3"
     id="path29"
     inkscape:connector-curvature="0"
     style="fill:#a6a6a6;stroke:#000000;stroke-width:0.72000003000000001;stroke-linecap:round;stroke-linejoin:round;fill-opacity:1" /></g>
</svg>
